X:1
T:Se dire je l'osoye
R:Chanson
C:Tielman Susato
H:1544
N:compatible Abc2midi & Abcm2ps
A:Anvers
B:Premier livre des chansons
%O:Flandres
Z: Eric Forgeot - http://anamnese.online.fr
M:C|
L:1/4
Q:1/4=110
K:C
%%staves [1 | 2 | 3]
V:1 nm="M.S."
V:2 nm="T."
V:3 nm="B."
%%abc2pscompat
%%measurenb 0
%%staffsep 57pt
%%sysstaffsep 30pt
%%indent 50
V:1
%%MIDI channel 1
%%MIDI program 68       % General MIDI Oboe
%%MIDI transpose 0
%%MIDI control 7 110 %volume
%%MIDI control 10 100 %pan
%%freegchord 1
"(Chantez a deux si bon vous semble, Puis chanterez tous troix ensemble.)"
z4 | z2 D2 | DFED | F>G A/ B/ A-|A^G A2 | A2 AA | GE F2 | EEEG |!
FE F>G | A/ B/  A2 G/ F/  | E A2 ^G | A4-|A2 zG  | A c>B A  | G2 F E/ D/  | C F2 E | F4 |
zDDF | EDF>G | A/ G/  A2 ^G | A4 | z GA c-|c/ B/ A>GF-|F/ E/4D/4 EF>E | D2C2 |
zCDF-|FED2 | C4 | zF2F | EFzF | FFED-|D/ C/ C2B, | C2 zE | AAGF-|
F/ E/ E2 D | E3D/ C/  | D2 zC | FFED-|D/ C/ C/ B,/4A,/4B,2 | A,2 zA | cAAA | A/ G/ F/ E/  F/ G/  A-|
A ^G A2-|A2 zA | cAAA | A/ G/ F/ E/  F2 | E4-|E2 zE | E/ D/ C/ B,/  A,A | A/ G/ F/ E/  D G-|
G/ F/ E/ D/  C/ B,/ A,/ B,/  | [M:3/2] C/ D/  E>D D2 ^C | [M:2/2] D2 z A | cAAA |
A/ G/ F/ E/  F/ G/  A-|A ^G A2-|A2 zA | cAAA | A/ G/ F/ E/  F2 | E4-|E2 zE | E/ D/ C/ B,/  A, A |
A/ G/ F/ E/  D G-| G/ F/ E/ D/  C/ B,/ A,/ B,/  | [M:3/2] C/ D/  E>D D2 ^C | [M:2/2] HD4 |]
V:2
%%MIDI channel 2
%%MIDI program 69       % General MIDI english horn
%%MIDI transpose -12
%%MIDI control 7 110 %volume
%%MIDI control 10 30 %pan
K:C treble-8
G2 G _B | AG _B>c | d2 zd | dd cA |=B2 A2 | z DDF | E2 DF/2G/2 | A/2B/2 A2 G |!
A2 D2 | z AAA | cc B2|Acdf-|f/2e/2 d2 c-|c/2B/2A/2G/2 F2 | z GA c-|c/2B/2 A G2|FDDF |
EDF>G | ABAd-|d/ c/ c/ B/4A/4 B2 | Acdf-|fedc/ B/  | A>GA_B | G2F2 | zGAc-|
c/ B/  AGd-|d/ c/ c2 B | cF2F | EF D/ E/ F/ G/  | ADGF |
D/ E/ F/ G/  A _B | GAFG | A3/2 G/4F/4 E A-|A/ B/  c>BA/ G/  |
A/ G/ F/ E/  F2 | EAAA | G_B2 A/ G/  | F/ G/ A/ B/  c/ A/  B-|
B/ A/  A2 ^G | A4 | zdfd | dd d/ c/ B/ A/  | B2 Ad | fddd | cd2 c/ B/  | AD z A | 
cAAA | A/ G/ G/ F/4E/4 FE | AA/ G/  F/ E/ D | dd/ c/  B/ A/ G | c>B A/ G/  F | EG>FE/ D/  E2 | D4 | zdfd |
dd d/ c/ B/ A/  | B2 Ad | fddd | cd2 c/ B/  | AD z A | 
cAAA | A/ G/ G/ F/4E/4 FE | AA/ G/  F/ E/ D | dd/ c/  B/ A/ G | c>B A/ G/  F | EG>FE/ D/  E2 | HD4 |]
V:3
%%MIDI channel 3
%%MIDI program 57       % General MIDI Trombone
%%MIDI transpose -24
%%MIDI control 7 110 %volume
%%MIDI control 10 65 %pan
%%freegchord 1
K:C bass
%%clef=bass
"(Veulx tu chanter par bon advis, Attens que tu en soys requis.)"
z4 | z2 g2 | gfg3/2 f/4e/4 | dd f2 |
e2 A d | ddfd | g2 f d | c A e2 |
A aa _b |a d d/2e/2f/2g/2 | a2 e2 | f2 d2-|
d2 z e | f>g a f-|fedc | f2 c2 | z aad |
gfd>c | Addd | ffe2 | A2 zd | dc f/ g/ a-|a/ g/ f/ e/  d2 | c2d>c | _B2A2-|
A2 zd-|defg | a3g/ f/  | ga2d | za_ba |f/ g/ a z d | ecde | Aabc'-|c'/ b/ a/ g/4f/4 e f-|
f cda | bc'2 a | _b>agf/ e/  | d/ e/ f/ g/  a d | f2e2 | Adfd/  d/  | addd | d>c d/ e/ f |
eefd | d>c d/ e/ f/ g/  | a d d/ c/ d/ e/  | f2d2 | A2 zA | ccdc | Aaa/ g/ f/ e/  | dd g>f |
e/ d/ ccd | [M:3/2] c>BcdA2 | [M:2/2] z dfd/  d/  | addd | d>c d/ e/ f |
eefd | d>c d/ e/ f/ g/  | a d d/ c/ d/ e/  | f2d2 | A2 zA | ccdc | Aaa/ g/ f/ e/  | dd g>f |
e/ d/ ccd | [M:3/2] c>BcdA2 | [M:2/2] Hd4 |] 
W:Se dire je l'osoye, (3x)
W:D'où me vient le souffrir,
W:Mon mal allegeroye
W:Sans en jecter soupir, (2x)
W:Mais trop bien sçay que mal me veult saisir, 
W:que mal me veult saisir, (2x)
W:Pour user ou que soye, (2x)
W:Ma vie, ma vie en des plaisir
W:Pour user où que soye, (2x)
W:Ma vie, ma vie en des plaisir.
%%MIDI transpose 0

%%newpage


